X:6028
T:Far Away Waltz
R:Waltz
C:Peter Jung 1986
O:USA
Z:Paul Hardy's Session Tunebook 2022 (see www.paulhardy.net). Creative Commons cc by-nc-sa licenced.
M:3/4
L:1/8
Q:1/4=100
K:Bm
FA|"Bm"B2 BF Bd|"F#m"cA F2 FA|"Bm"B3 F Be|"A"c4 dc|"G"B2 BG Bd|"F#m"cA F2 de|"Bm"fe dc "A"BA|"Bm"B4:|
|:de|"D"f3 d fa|"A"ec A2 de|"D"f2 fd fa|"A"e4 de|"Bm"fd Be "A"cA|"G"dB Gc "F#m"AF|"Bm"F2 B2 "F#m"BA|"Bm"B4:|

